X:1
T:Agape, 87.87
T:Agape, 87.87
T:Charles John Dickinson, 1861
T:Public Domain Courtesy of the Cyber Hymnal™
C:Charles John Dickinson, 1861
Z:Public Domain
Z:Courtesy of the Cyber Hymnal™
%%score ( 1 2 ) ( 3 4 )
L:1/8
Q:1/4=115
M:3/4
K:G
V:1 treble 
V:2 treble 
V:3 bass 
V:4 bass 
V:1
 [B,D]2 [CE]2 [DF]2 | [DG]4 [DB]2 | (B2 A2) [=CE]2 | [DG]4 [DF]2 | (G2 F2) [CE]2 | [B,D]4 [DG]2 | %6
 A4 [GB]2 | [FA]6 | [FA]2 [GB]2 [Ac]2 | [Bd]4 [Gd]2 | [Ge]4 [Ge]2 | [Fd]4 [GB]2 | %12
 [Dd]2 [Fc]2 [GB]2 | (B2 A2) [A,E]2 | G4 [FA]2 | G6 |] %16
V:2
 x6 | x6 | ^C4 x2 | x6 | D4 x2 | x6 | A4 x2 | x6 | x6 | x6 | x6 | x6 | x6 | E4 x2 | (B,2 D2) x2 | %15
 G6 |] %16
V:3
 [G,,G,]2 [C,G,]2 [A,,C]2 | [G,,B,]4 [G,D]2 | [E,G,]4 [E,G,]2 | [D,B,]4 [D,A,]2 | %4
 [B,,G,]4 [C,G,]2 | [G,,G,]4 [G,B,]2 | [F,D]4 [G,D]2 | [D,D]6 | [CD]2 [B,D]2 [A,D]2 | %9
 [G,D]4 [G,B,]2 | [C,C]4 [C,C]2 | [D,A,]4 [E,G,]2 | [B,,G,]2 [A,,A,]2 [G,,B,]2 | (D2 C2) [^C,G,]2 | %14
 (G,2 B,2) [D,C]2 | [G,B,]6 |] %16
V:4
 x6 | x6 | x6 | x6 | x6 | x6 | x6 | x6 | x6 | x6 | x6 | x6 | x6 | ^C,4 x2 | D,4 x2 | x6 |] %16

